img/svg/horror.svg

<svg xmlns="http://www.w3.org/2000/svg" preserveAspectRatio="xMidYMid" width="38" height="41" viewBox="0 0 38 41"><defs><style>.cls-2 { fill: #9ba9b0; }</style></defs><path d="M37 24h-3v1.824c0 8.919-5.932 15.176-14.452 15.176h-.375c-8.767 0-15.173-6.407-15.173-15.176v-1.824h-3c-.552 0-1-.447-1-1v-6c0-.553.448-1 1-1h3v-10.238c0-3.607 3.297-5.762 6.484-5.762h17.752c3.394 0 5.764 2.369 5.764 5.762v10.238h3c.552 0 1 .447 1 1v6c0 .553-.448 1-1 1zm-33-6h-2v4h2v-4zm28-12.238c0-2.285-1.478-3.762-3.764-3.762h-17.752c-2.156 0-4.484 1.438-4.484 3.762v1.924c.27.757.959 1.314 1.75 1.314 1.016 0 1.875-.916 1.875-2 0-.553.42-1 .937-1 .518 0 .938.447.938 1 0 1.084.859 2 1.875 2s1.875-.916 1.875-2c0-.553.42-1 .937-1 .518 0 .938.447.938 1 0 1.084.859 2 1.875 2s1.875-.916 1.875-2c0-.553.419-1 .937-1 .519 0 .938.447.938 1 0 1.084.859 2 1.875 2s1.875-.916 1.875-2c0-.553.419-1 .937-1 .519 0 .938.447.938 1 0 1.084.859 2 1.875 2 .791 0 1.48-.557 1.75-1.314v-1.924zm0 4.754c-.525.299-1.115.484-1.75.484-1.119 0-2.125-.525-2.813-1.357-.687.832-1.693 1.357-2.812 1.357-1.119 0-2.125-.525-2.813-1.357-.687.832-1.693 1.357-2.812 1.357-1.119 0-2.125-.525-2.813-1.357-.687.832-1.693 1.357-2.812 1.357-1.119 0-2.125-.525-2.813-1.357-.687.832-1.693 1.357-2.812 1.357-.635 0-1.225-.185-1.75-.484v15.308c0 7.684 5.49 13.176 13.173 13.176h.375c7.417 0 12.452-5.359 12.452-13.176v-15.308zm4 7.484h-2v4h2v-4zm-9 14c-.256 0-.512-.098-.707-.293l-.293-.255v.882c0 .553-.448 1-1 1s-1-.447-1-1v-2.147c-.574-.286-1.237-.561-2-.774v.587c0 .553-.448 1-1 1s-1-.447-1-1v-.928c-.329-.03-.649-.072-1-.072-.35 0-.672.037-1 .067v.933c0 .553-.448 1-1 1s-1-.447-1-1v-.575c-.754.214-1.429.483-2 .767v2.142c0 .553-.448 1-1 1s-1-.447-1-1v-.877l-.295.253c-.392.387-1.025.384-1.414-.007-.388-.391-.388-1.02.002-1.41.055-.056.665-.632 1.707-1.284v-.675c0-.553.448-1 1-1 .435 0 .796.282.933.671.616-.255 1.313-.478 2.067-.654v-1.351c0-.553.448-1 1-1s1 .447 1 1v1.054c.328-.025.654-.054 1-.054.351 0 .667.046 1 .071v-1.071c0-.553.448-1 1-1s1 .447 1 1v1.368c.76.178 1.439.416 2.059.672.127-.406.493-.706.941-.706.552 0 1 .447 1 1v.687c1.05.648 1.651 1.216 1.707 1.272.391.391.391 1.023 0 1.414-.195.195-.451.293-.707.293zm-.567-9.568c-.196.195-.452.293-.707.293-.256 0-.512-.098-.707-.293l-1.156-1.156-1.156 1.156c-.195.195-.451.293-.707.293-.256 0-.512-.098-.707-.293-.391-.391-.391-1.024 0-1.414l1.156-1.156-1.156-1.155c-.391-.39-.391-1.023 0-1.414s1.023-.391 1.414 0l1.156 1.155 1.156-1.155c.39-.391 1.023-.391 1.414 0 .39.391.39 1.024 0 1.414l-1.156 1.155 1.156 1.156c.39.39.39 1.023 0 1.414zm-9.726 0c-.195.195-.451.293-.707.293-.256 0-.512-.098-.707-.293l-1.156-1.156-1.156 1.156c-.195.195-.451.293-.707.293-.255 0-.511-.098-.707-.293-.39-.391-.39-1.024 0-1.414l1.156-1.156-1.156-1.155c-.39-.39-.39-1.023 0-1.414.391-.391 1.024-.391 1.414 0l1.156 1.155 1.156-1.155c.391-.391 1.023-.391 1.414 0s.391 1.024 0 1.414l-1.156 1.155 1.156 1.156c.391.39.391 1.023 0 1.414z" id="path-1" class="cls-2" fill-rule="evenodd"/></svg>

<svg xmlns="http://www.w3.org/2000/svg" xmlns:xlink="http://www.w3.org/1999/xlink" preserveAspectRatio="xMidYMid" width="38" height="41" viewBox="0 0 38 41">
  <defs>
    <style>

      .cls-2 {
        fill: #9ba9b0;
      }
    </style>
  </defs>
  <path d="M37.000,24.000 C37.000,24.000 34.000,24.000 34.000,24.000 C34.000,24.000 34.000,25.824 34.000,25.824 C34.000,34.743 28.068,41.000 19.548,41.000 C19.548,41.000 19.173,41.000 19.173,41.000 C10.406,41.000 4.000,34.593 4.000,25.824 C4.000,25.824 4.000,24.000 4.000,24.000 C4.000,24.000 1.000,24.000 1.000,24.000 C0.448,24.000 -0.000,23.553 -0.000,23.000 C-0.000,23.000 -0.000,17.000 -0.000,17.000 C-0.000,16.447 0.448,16.000 1.000,16.000 C1.000,16.000 4.000,16.000 4.000,16.000 C4.000,16.000 4.000,5.762 4.000,5.762 C4.000,2.155 7.297,-0.000 10.484,-0.000 C10.484,-0.000 28.236,-0.000 28.236,-0.000 C31.630,-0.000 34.000,2.369 34.000,5.762 C34.000,5.762 34.000,16.000 34.000,16.000 C34.000,16.000 37.000,16.000 37.000,16.000 C37.552,16.000 38.000,16.447 38.000,17.000 C38.000,17.000 38.000,23.000 38.000,23.000 C38.000,23.553 37.552,24.000 37.000,24.000 ZM4.000,18.000 C4.000,18.000 2.000,18.000 2.000,18.000 C2.000,18.000 2.000,22.000 2.000,22.000 C2.000,22.000 4.000,22.000 4.000,22.000 C4.000,22.000 4.000,18.000 4.000,18.000 ZM32.000,5.762 C32.000,3.477 30.522,2.000 28.236,2.000 C28.236,2.000 10.484,2.000 10.484,2.000 C8.328,2.000 6.000,3.438 6.000,5.762 C6.000,5.762 6.000,7.686 6.000,7.686 C6.270,8.443 6.959,9.000 7.750,9.000 C8.766,9.000 9.625,8.084 9.625,7.000 C9.625,6.447 10.045,6.000 10.562,6.000 C11.080,6.000 11.500,6.447 11.500,7.000 C11.500,8.084 12.359,9.000 13.375,9.000 C14.391,9.000 15.250,8.084 15.250,7.000 C15.250,6.447 15.670,6.000 16.187,6.000 C16.705,6.000 17.125,6.447 17.125,7.000 C17.125,8.084 17.984,9.000 19.000,9.000 C20.016,9.000 20.875,8.084 20.875,7.000 C20.875,6.447 21.294,6.000 21.812,6.000 C22.331,6.000 22.750,6.447 22.750,7.000 C22.750,8.084 23.609,9.000 24.625,9.000 C25.641,9.000 26.500,8.084 26.500,7.000 C26.500,6.447 26.919,6.000 27.437,6.000 C27.956,6.000 28.375,6.447 28.375,7.000 C28.375,8.084 29.234,9.000 30.250,9.000 C31.041,9.000 31.730,8.443 32.000,7.686 C32.000,7.686 32.000,5.762 32.000,5.762 ZM32.000,10.516 C31.475,10.815 30.885,11.000 30.250,11.000 C29.131,11.000 28.125,10.475 27.437,9.643 C26.750,10.475 25.744,11.000 24.625,11.000 C23.506,11.000 22.500,10.475 21.812,9.643 C21.125,10.475 20.119,11.000 19.000,11.000 C17.881,11.000 16.875,10.475 16.187,9.643 C15.500,10.475 14.494,11.000 13.375,11.000 C12.256,11.000 11.250,10.475 10.562,9.643 C9.875,10.475 8.869,11.000 7.750,11.000 C7.115,11.000 6.525,10.815 6.000,10.516 C6.000,10.516 6.000,17.000 6.000,17.000 C6.000,17.000 6.000,23.000 6.000,23.000 C6.000,23.000 6.000,25.824 6.000,25.824 C6.000,33.508 11.490,39.000 19.173,39.000 C19.173,39.000 19.548,39.000 19.548,39.000 C26.965,39.000 32.000,33.641 32.000,25.824 C32.000,25.824 32.000,23.000 32.000,23.000 C32.000,23.000 32.000,17.000 32.000,17.000 C32.000,17.000 32.000,10.516 32.000,10.516 ZM36.000,18.000 C36.000,18.000 34.000,18.000 34.000,18.000 C34.000,18.000 34.000,22.000 34.000,22.000 C34.000,22.000 36.000,22.000 36.000,22.000 C36.000,22.000 36.000,18.000 36.000,18.000 ZM27.000,32.000 C26.744,32.000 26.488,31.902 26.293,31.707 C26.288,31.702 26.187,31.605 26.000,31.452 C26.000,31.452 26.000,32.334 26.000,32.334 C26.000,32.887 25.552,33.334 25.000,33.334 C24.448,33.334 24.000,32.887 24.000,32.334 C24.000,32.334 24.000,30.187 24.000,30.187 C23.426,29.901 22.763,29.626 22.000,29.413 C22.000,29.413 22.000,30.000 22.000,30.000 C22.000,30.553 21.552,31.000 21.000,31.000 C20.448,31.000 20.000,30.553 20.000,30.000 C20.000,30.000 20.000,29.072 20.000,29.072 C19.671,29.042 19.351,29.000 19.000,29.000 C18.650,29.000 18.328,29.037 18.000,29.067 C18.000,29.067 18.000,30.000 18.000,30.000 C18.000,30.553 17.552,31.000 17.000,31.000 C16.448,31.000 16.000,30.553 16.000,30.000 C16.000,30.000 16.000,29.425 16.000,29.425 C15.246,29.639 14.571,29.908 14.000,30.192 C14.000,30.192 14.000,32.334 14.000,32.334 C14.000,32.887 13.552,33.334 13.000,33.334 C12.448,33.334 12.000,32.887 12.000,32.334 C12.000,32.334 12.000,31.457 12.000,31.457 C11.829,31.598 11.709,31.705 11.705,31.710 C11.313,32.097 10.680,32.094 10.291,31.703 C9.903,31.312 9.903,30.683 10.293,30.293 C10.348,30.237 10.958,29.661 12.000,29.009 C12.000,29.009 12.000,28.334 12.000,28.334 C12.000,27.781 12.448,27.334 13.000,27.334 C13.435,27.334 13.796,27.616 13.933,28.005 C14.549,27.750 15.246,27.527 16.000,27.351 C16.000,27.351 16.000,26.000 16.000,26.000 C16.000,25.447 16.448,25.000 17.000,25.000 C17.552,25.000 18.000,25.447 18.000,26.000 C18.000,26.000 18.000,27.054 18.000,27.054 C18.328,27.029 18.654,27.000 19.000,27.000 C19.351,27.000 19.667,27.046 20.000,27.071 C20.000,27.071 20.000,26.000 20.000,26.000 C20.000,25.447 20.448,25.000 21.000,25.000 C21.552,25.000 22.000,25.447 22.000,26.000 C22.000,26.000 22.000,27.368 22.000,27.368 C22.760,27.546 23.439,27.784 24.059,28.040 C24.186,27.634 24.552,27.334 25.000,27.334 C25.552,27.334 26.000,27.781 26.000,28.334 C26.000,28.334 26.000,29.021 26.000,29.021 C27.050,29.669 27.651,30.237 27.707,30.293 C28.098,30.684 28.098,31.316 27.707,31.707 C27.512,31.902 27.256,32.000 27.000,32.000 ZM26.433,22.432 C26.237,22.627 25.981,22.725 25.726,22.725 C25.470,22.725 25.214,22.627 25.019,22.432 C25.019,22.432 23.863,21.276 23.863,21.276 C23.863,21.276 22.707,22.432 22.707,22.432 C22.512,22.627 22.256,22.725 22.000,22.725 C21.744,22.725 21.488,22.627 21.293,22.432 C20.902,22.041 20.902,21.408 21.293,21.018 C21.293,21.018 22.449,19.862 22.449,19.862 C22.449,19.862 21.293,18.707 21.293,18.707 C20.902,18.317 20.902,17.684 21.293,17.293 C21.684,16.902 22.316,16.902 22.707,17.293 C22.707,17.293 23.863,18.448 23.863,18.448 C23.863,18.448 25.019,17.293 25.019,17.293 C25.409,16.902 26.042,16.902 26.433,17.293 C26.823,17.684 26.823,18.317 26.433,18.707 C26.433,18.707 25.277,19.862 25.277,19.862 C25.277,19.862 26.433,21.018 26.433,21.018 C26.823,21.408 26.823,22.041 26.433,22.432 ZM16.707,22.432 C16.512,22.627 16.256,22.725 16.000,22.725 C15.744,22.725 15.488,22.627 15.293,22.432 C15.293,22.432 14.137,21.276 14.137,21.276 C14.137,21.276 12.981,22.432 12.981,22.432 C12.786,22.627 12.530,22.725 12.274,22.725 C12.019,22.725 11.763,22.627 11.567,22.432 C11.177,22.041 11.177,21.408 11.567,21.018 C11.567,21.018 12.723,19.862 12.723,19.862 C12.723,19.862 11.567,18.707 11.567,18.707 C11.177,18.317 11.177,17.684 11.567,17.293 C11.958,16.902 12.591,16.902 12.981,17.293 C12.981,17.293 14.137,18.448 14.137,18.448 C14.137,18.448 15.293,17.293 15.293,17.293 C15.684,16.902 16.316,16.902 16.707,17.293 C17.098,17.684 17.098,18.317 16.707,18.707 C16.707,18.707 15.551,19.862 15.551,19.862 C15.551,19.862 16.707,21.018 16.707,21.018 C17.098,21.408 17.098,22.041 16.707,22.432 Z" id="path-1" class="cls-2" fill-rule="evenodd"/>
</svg>
